components/icon/svg/24/journey_booking.svg

<?xml version="1.0" encoding="UTF-8"?>
<svg width="24px" height="24px" viewBox="0 0 24 24" version="1.1" xmlns="http://www.w3.org/2000/svg" xmlns:xlink="http://www.w3.org/1999/xlink">
    <!-- Generator: Sketch 64 (93537) - https://sketch.com -->
    <title>ic-db_journey_booking_24</title>
    <desc>Created with Sketch.</desc>
    <g id="Symbols" stroke="none" stroke-width="1" fill="none" fill-rule="evenodd">
        <g id="24dp-Icon/Journey/Booking" fill="#282D37">
            <path d="M7,2 C8.7188,2 10.41,3.1874 10.8438,5 L15,5 C17.1874,5 18.9688,6.7812 18.9688,9 C18.9688,11.1875 17.1874,13 15,13 L10,13 C8.875,13 8,13.9062 8,15 C8,16.1562 8.875,17 10,17 L17.5625,17 L16.2812,15.7188 C16.0937,15.5312 16,15.2812 16,14.9688 C16,14.5312 16.3437,14 17,14 C17.25,14 17.4688,14.0938 17.6562,14.2812 L20.6875,17.2812 C20.875,17.4688 21,17.7188 21,18 C21,18.25 20.875,18.5 20.6875,18.6875 L17.6562,21.7188 C17.4688,21.9062 17.2812,22 17,22 C16.5312,22 16,21.625 16,21 C16,20.75 16.0937,20.4688 16.2812,20.2812 L17.5625,19 L10,19 C7.7812,19 6,17.25 6,15 C6,12.8124 7.7812,11 10,11 L15,11 C16.125,11 17,10.0938 17,9 C17,7.9688 16.1562,7 15,7 L10.8438,7 C10.4062,8.7188 8.8438,9.9688 7,9.9688 C4.8438,9.9688 3,8.25 3,6 C3,3.8125 4.6562,2 7,2 Z M7,4 C5.9062,4 5,4.875 5,6 C5,7.0625 5.9062,7.9688 7,7.9688 C8.0625,7.9688 8.9688,7.0938 8.9688,6 C8.9688,4.875 8.0625,4 7,4 Z" id="🎨-Color"></path>
        </g>
    </g>
</svg>

<svg width="24" height="24" xmlns="http://www.w3.org/2000/svg"><path d="M7 2c1.719 0 3.41 1.187 3.844 3H15c2.187 0 3.969 1.781 3.969 4 0 2.188-1.782 4-3.969 4h-5c-1.125 0-2 .906-2 2 0 1.156.875 2 2 2h7.563l-1.282-1.281c-.187-.188-.281-.438-.281-.75A.978.978 0 0117 14a.9.9 0 01.656.281l3.032 3c.187.188.312.438.312.719 0 .25-.125.5-.313.688l-3.03 3.03A.851.851 0 0117 22c-.469 0-1-.375-1-1 0-.25.094-.531.281-.719L17.563 19H10c-2.219 0-4-1.75-4-4 0-2.188 1.781-4 4-4h5c1.125 0 2-.906 2-2 0-1.031-.844-2-2-2h-4.156A3.958 3.958 0 017 9.969C4.844 9.969 3 8.25 3 6c0-2.188 1.656-4 4-4zm0 2c-1.094 0-2 .875-2 2 0 1.063.906 1.969 2 1.969A1.98 1.98 0 008.969 6c0-1.125-.906-2-1.969-2z" fill="#282D37" fill-rule="evenodd"/></svg>
